X:372
T:Ai, Dunaii Moy
Z:Jack Campin, http://www.campin.me.uk/
F:Jack Campin's Nine-Note Tunebook
% last edit 03-03-2013
N:as used in Tchaikowsky's 1812 Overture
M:4/4
L:1/8
Q:1/4=90
K:EMin
BB/c/ BA GG    AE|GG E2 GF/G/ AE |\
B2    EE EG    FE|
                  B2 EE EG    FE |\
BB    BB Bd/B/ AF|GG E2 G/F/G AE |
B2    EE EG    FE|B2 EE EG    FE |\
BB/c/ BA GG    AE|B2 E6         |]

